X:182
T:Ouvrez la Porte
M:7/8
L:1/8
K:G
|: "Em"B2 Bc BA G | "D"A2 AG BA G | "A"A2 AG BA G | "C"E2 DE GA G :||
"Em"E2 EF GF E | "D"G2 AG B2 A | "C"B2 Bc BA G | "D"A2 AG BA G |
"Em"E2 EF GF E | "A"G2 Ac B2 A | "C"B2 Be BA G | "D"A2 AG BA G ||
